assets/work/logofolio/logofolio-8.svg

<svg width="159" height="219" viewBox="0 0 159 219" fill="none" xmlns="http://www.w3.org/2000/svg">
<path d="M72.2934 205.727V200.229H71.3987V205.727H72.2934ZM74.1726 205.727V201.632H74.2532L75.68 205.727H76.9374V200.229H76.075V204.324H75.9943L74.5676 200.229H73.3021V205.727H74.1726ZM77.9448 200.229V205.727H79.7504C80.8467 205.727 81.6205 205.058 81.6205 203.711V202.244C81.6205 200.898 80.8467 200.229 79.7504 200.229H77.9448ZM80.7338 203.711C80.7338 204.622 80.4195 204.896 79.7504 204.896H78.8396V201.059H79.7504C80.4195 201.059 80.7338 201.325 80.7338 202.244V203.711ZM84.1955 205.807C85.2917 205.807 86.0011 205.162 86.0011 203.937V200.229H85.1063V203.937C85.1063 204.735 84.8645 205.001 84.1955 205.001H84.1471C83.4781 205.001 83.2363 204.735 83.2363 203.937V200.229H82.3415V203.937C82.3415 205.162 83.0509 205.807 84.1471 205.807H84.1955ZM88.5194 205.807C89.6237 205.807 90.3814 205.299 90.3814 204.251C90.3814 203.228 89.6076 202.841 88.6 202.526C88.0519 202.357 87.5683 202.188 87.5683 201.632C87.5683 201.164 87.8423 200.955 88.3663 200.955H88.4146C89.0756 200.955 89.3658 201.164 89.3658 201.93H90.2525C90.2525 200.697 89.5028 200.149 88.4146 200.149H88.3663C87.4151 200.149 86.6816 200.656 86.6655 201.632C86.6574 202.51 87.1894 202.938 88.1406 203.26C88.729 203.462 89.4948 203.607 89.4948 204.251C89.4948 204.8 89.1885 205.001 88.5194 205.001H88.4711C87.7698 205.001 87.4554 204.792 87.4554 204.034H86.5687C86.5687 205.259 87.3426 205.807 88.4711 205.807H88.5194ZM90.4125 200.229V201.059H91.9037V205.727H92.7904V201.059H94.2816V200.229H90.4125ZM98.4282 205.727L97.211 203.728V203.655C98.001 203.478 98.412 202.929 98.412 201.986V201.954C98.412 200.801 97.7994 200.229 96.6145 200.229H94.7605V205.727H95.6553V203.711H96.2276L97.4367 205.727H98.4282ZM97.5334 201.986C97.5334 202.639 97.34 202.889 96.6145 202.889H95.6553V201.059H96.6145C97.34 201.059 97.5334 201.293 97.5334 201.954V201.986ZM99.9674 205.727V200.229H99.0727V205.727H99.9674ZM104.716 205.727L103.314 200.229H101.968L100.525 205.727H101.484L101.855 204.171H103.418L103.789 205.727H104.716ZM102.596 201.059H102.685L103.225 203.341H102.056L102.596 201.059ZM106.159 200.229H105.265V205.727H108.352V204.896H106.159V200.229ZM110.52 200.229V205.727H112.325C113.422 205.727 114.196 205.058 114.196 203.711V202.244C114.196 200.898 113.422 200.229 112.325 200.229H110.52ZM113.309 203.711C113.309 204.622 112.994 204.896 112.325 204.896H111.415V201.059H112.325C112.994 201.059 113.309 201.325 113.309 202.244V203.711ZM118.383 200.229H115.005V205.727H118.383V204.896H115.9V203.373H117.738V202.551H115.9V201.059H118.383V200.229ZM120.606 205.807C121.711 205.807 122.468 205.299 122.468 204.251C122.468 203.228 121.695 202.841 120.687 202.526C120.139 202.357 119.655 202.188 119.655 201.632C119.655 201.164 119.929 200.955 120.453 200.955H120.502C121.163 200.955 121.453 201.164 121.453 201.93H122.339C122.339 200.697 121.59 200.149 120.502 200.149H120.453C119.502 200.149 118.769 200.656 118.752 201.632C118.744 202.51 119.276 202.938 120.228 203.26C120.816 203.462 121.582 203.607 121.582 204.251C121.582 204.8 121.275 205.001 120.606 205.001H120.558C119.857 205.001 119.542 204.792 119.542 204.034H118.656C118.656 205.259 119.43 205.807 120.558 205.807H120.606ZM124.005 205.727V200.229H123.11V205.727H124.005ZM127.706 203.768V203.792C127.706 204.711 127.311 205.001 126.714 205.001H126.674C126.013 205.001 125.707 204.711 125.707 203.792V202.164C125.707 201.245 126.013 200.955 126.69 200.955H126.738C127.399 200.955 127.706 201.245 127.706 202.164H128.6C128.6 200.818 127.827 200.149 126.738 200.149H126.69C125.586 200.149 124.812 200.818 124.812 202.164V203.792C124.812 205.138 125.465 205.807 126.456 205.807H126.505C127.125 205.807 127.48 205.573 127.673 205.09H127.77V205.727H128.6V202.946H126.811V203.768H127.706ZM130.267 205.727V201.632H130.348L131.774 205.727H133.032V200.229H132.169V204.324H132.089L130.662 200.229H129.396V205.727H130.267ZM137.247 205.807C138.352 205.807 139.109 205.299 139.109 204.251C139.109 203.228 138.336 202.841 137.328 202.526C136.78 202.357 136.296 202.188 136.296 201.632C136.296 201.164 136.57 200.955 137.094 200.955H137.143C137.804 200.955 138.094 201.164 138.094 201.93H138.98C138.98 200.697 138.231 200.149 137.143 200.149H137.094C136.143 200.149 135.409 200.656 135.393 201.632C135.385 202.51 135.917 202.938 136.868 203.26C137.457 203.462 138.223 203.607 138.223 204.251C138.223 204.8 137.916 205.001 137.247 205.001H137.199C136.498 205.001 136.183 204.792 136.183 204.034H135.297C135.297 205.259 136.07 205.807 137.199 205.807H137.247ZM139.14 200.229V201.059H140.632V205.727H141.518V201.059H143.01V200.229H139.14ZM145.254 205.807C146.35 205.807 147.059 205.162 147.059 203.937V200.229H146.165V203.937C146.165 204.735 145.923 205.001 145.254 205.001H145.205C144.536 205.001 144.295 204.735 144.295 203.937V200.229H143.4V203.937C143.4 205.162 144.109 205.807 145.205 205.807H145.254ZM147.982 200.229V205.727H149.787C150.884 205.727 151.657 205.058 151.657 203.711V202.244C151.657 200.898 150.884 200.229 149.787 200.229H147.982ZM150.771 203.711C150.771 204.622 150.456 204.896 149.787 204.896H148.876V201.059H149.787C150.456 201.059 150.771 201.325 150.771 202.244V203.711ZM153.362 205.727V200.229H152.467V205.727H153.362ZM156.087 205.807C157.184 205.807 157.957 205.138 157.957 203.792V202.164C157.957 200.818 157.184 200.149 156.087 200.149H156.039C154.943 200.149 154.169 200.818 154.169 202.164V203.792C154.169 205.138 154.943 205.807 156.039 205.807H156.087ZM156.039 205.001C155.37 205.001 155.064 204.703 155.064 203.792V202.164C155.064 201.253 155.37 200.955 156.039 200.955H156.087C156.756 200.955 157.063 201.253 157.063 202.164V203.792C157.063 204.703 156.756 205.001 156.087 205.001H156.039Z" fill="#3A3A39"/>
<path d="M73.3195 214.473C73.7004 214.34 73.8878 214.044 73.8878 213.608V213.536C73.8878 212.895 73.4948 212.502 72.7271 212.502H71.4394V216.625H72.8842C73.6339 216.625 74.0389 216.22 74.0389 215.513V215.464C74.0389 214.938 73.7971 214.636 73.3195 214.527V214.473ZM73.519 213.614C73.519 214.116 73.2833 214.358 72.7271 214.358H71.8081V212.847H72.7271C73.2833 212.847 73.519 213.088 73.519 213.56V213.614ZM73.6702 215.494C73.6702 216.039 73.4223 216.28 72.8782 216.28H71.8081V214.703H72.8782C73.4223 214.703 73.6702 214.944 73.6702 215.452V215.494ZM76.0317 216.685C76.8298 216.685 77.3376 216.274 77.3376 215.283V212.502H76.9688V215.283C76.9688 216.057 76.6605 216.341 76.0317 216.341H76.0015C75.3788 216.341 75.0705 216.057 75.0705 215.283V212.502H74.7017V215.283C74.7017 216.28 75.2156 216.685 76.0015 216.685H76.0317ZM80.6443 212.502H78.2382V216.625H80.6443V216.28H78.613V214.727H80.1365V214.382H78.613V212.847H80.6443V212.502ZM81.6227 216.625V212.998H81.671L83.261 216.625H83.8293V212.502H83.4666V216.123H83.4182L81.8282 212.502H81.2539V216.625H81.6227ZM85.9982 216.685C86.7962 216.685 87.3343 216.262 87.3343 215.222V213.898C87.3343 212.859 86.7962 212.441 85.9982 212.441H85.974C85.1821 212.441 84.6319 212.853 84.6319 213.898V215.222C84.6319 216.274 85.1821 216.685 85.974 216.685H85.9982ZM85.974 216.341C85.3453 216.341 85.0068 216.051 85.0068 215.222V213.892C85.0068 213.07 85.3453 212.786 85.974 212.786H85.9982C86.6209 212.786 86.9655 213.07 86.9655 213.892V215.222C86.9655 216.051 86.6209 216.341 85.9982 216.341H85.974ZM89.2782 216.685C90.0762 216.685 90.6142 216.286 90.6142 215.585C90.6142 214.696 89.8041 214.509 89.3205 214.346C88.8671 214.189 88.3048 214.068 88.3048 213.487C88.3048 213.04 88.5769 212.78 89.1572 212.78H89.1875C89.7678 212.78 90.1487 213.022 90.1487 213.765H90.5175C90.5175 212.81 89.9432 212.441 89.1875 212.441H89.1572C88.4136 212.441 87.9361 212.828 87.93 213.487C87.93 214.304 88.6797 214.503 89.1512 214.666C89.6469 214.836 90.2454 214.944 90.2454 215.585C90.2454 216.087 89.9069 216.341 89.2782 216.341H89.2419C88.5708 216.341 88.2081 216.105 88.2081 215.361H87.8333C87.8333 216.305 88.4076 216.685 89.2419 216.685H89.2782ZM95.1602 216.625L93.9874 212.502H93.4131L92.2281 216.625H92.6332L93.002 215.307H94.3985L94.7612 216.625H95.1602ZM93.6791 212.859H93.7214L94.3018 214.962H93.0927L93.6791 212.859ZM96.1463 216.625V212.502H95.7714V216.625H96.1463ZM99.6619 213.723C99.6619 212.847 99.1904 212.502 98.4649 212.502H97.0986V216.625H97.4734V214.956H98.1505L99.1843 216.625H99.6075L98.5919 214.987V214.95C99.2448 214.914 99.6619 214.557 99.6619 213.735V213.723ZM99.2931 213.735C99.2931 214.412 99.0211 214.606 98.4649 214.606H97.4734V212.847H98.4649C99.0211 212.847 99.2931 213.046 99.2931 213.723V213.735ZM102.715 212.502H100.309V216.625H102.715V216.28H100.684V214.727H102.207V214.382H100.684V212.847H102.715V212.502ZM104.426 216.685C105.224 216.685 105.762 216.286 105.762 215.585C105.762 214.696 104.952 214.509 104.469 214.346C104.015 214.189 103.453 214.068 103.453 213.487C103.453 213.04 103.725 212.78 104.305 212.78H104.336C104.916 212.78 105.297 213.022 105.297 213.765H105.666C105.666 212.81 105.091 212.441 104.336 212.441H104.305C103.562 212.441 103.084 212.828 103.078 213.487C103.078 214.304 103.828 214.503 104.299 214.666C104.795 214.836 105.394 214.944 105.394 215.585C105.394 216.087 105.055 216.341 104.426 216.341H104.39C103.719 216.341 103.356 216.105 103.356 215.361H102.981C102.981 216.305 103.556 216.685 104.39 216.685H104.426ZM110.197 215.053V214.703H108.807V215.053H110.197ZM114.833 216.625L113.66 212.502H113.086L111.901 216.625H112.306L112.675 215.307H114.071L114.434 216.625H114.833ZM113.352 212.859H113.394L113.975 214.962H112.765L113.352 212.859ZM118.008 213.723C118.008 212.847 117.536 212.502 116.81 212.502H115.444V216.625H115.819V214.956H116.496L117.53 216.625H117.953L116.937 214.987V214.95C117.59 214.914 118.008 214.557 118.008 213.735V213.723ZM117.639 213.735C117.639 214.412 117.367 214.606 116.81 214.606H115.819V212.847H116.81C117.367 212.847 117.639 213.046 117.639 213.723V213.735ZM120.831 215.017V215.222C120.831 216.045 120.474 216.341 119.834 216.341H119.809C119.211 216.341 118.872 216.045 118.872 215.222V213.898C118.872 213.076 119.211 212.786 119.84 212.786H119.864C120.487 212.786 120.831 213.076 120.831 213.898H121.2C121.2 212.859 120.662 212.441 119.864 212.441H119.84C119.048 212.441 118.498 212.853 118.498 213.898V215.222C118.498 216.274 119.03 216.685 119.773 216.685H119.797C120.305 216.685 120.626 216.51 120.783 216.099H120.837V216.625H121.2V214.672H120.039V215.017H120.831ZM124.401 212.502H121.995V216.625H124.401V216.28H122.37V214.727H123.893V214.382H122.37V212.847H124.401V212.502ZM125.38 216.625V212.998H125.428L127.018 216.625H127.586V212.502H127.223V216.123H127.175L125.585 212.502H125.011V216.625H125.38ZM128.074 212.502V212.847H129.284V216.625H129.652V212.847H130.861V212.502H128.074ZM131.712 216.625V212.502H131.337V216.625H131.712ZM133.033 216.625V212.998H133.082L134.672 216.625H135.24V212.502H134.877V216.123H134.829L133.239 212.502H132.665V216.625H133.033ZM138.787 216.625L137.614 212.502H137.04L135.855 216.625H136.26L136.629 215.307H138.025L138.388 216.625H138.787ZM137.306 212.859H137.348L137.929 214.962H136.72L137.306 212.859Z" fill="#3A3A39"/>
<path d="M37.6025 115.623C48.4923 115.623 56.9105 118.253 62.6055 123.682C68.3082 129.117 71.1328 137.217 71.1328 147.836V148.422C71.1328 159.04 68.3082 167.141 62.6055 172.577C56.9105 178.005 48.4921 180.635 37.6025 180.635H19.2998V217.24H1.28906V115.623H37.6025ZM19.2998 163.942H37.6025C44.1409 163.942 47.9939 162.805 50.2578 160.459C52.5281 158.106 53.416 154.32 53.416 148.422V147.836C53.416 141.86 52.5265 138.119 50.2646 135.824C48.0041 133.531 44.1531 132.462 37.6025 132.462H19.2998V163.942ZM25.7803 1.12109L25.9854 1.71094L51.6553 75.3828V1.12109H72.001L72.2295 1.65332L90.4502 44.0234H90.9033L109.124 1.65332L109.353 1.12109H129.698V102.738H111.98V31.4307H111.965L95.6514 67.8096L95.418 68.3291H85.7842L85.5527 67.8047L69.5312 31.4307H69.3721V102.738H44.7383L44.5332 102.148L18.8604 28.4668V102.738H1.28906V1.12109H25.7803Z" fill="#3A3A39" stroke="#3A3A39" stroke-width="1.75706"/>
<path d="M48.876 198.205V217.972H29.1094V198.205H48.876Z" fill="#3A3A39"/>
<path d="M48.876 198.205V217.972H29.1094V198.205H48.876Z" stroke="#3A3A39"/>
</svg>

<?xml version="1.0" encoding="UTF-8"?>
<svg id="Layer_1" data-name="Layer 1" xmlns="http://www.w3.org/2000/svg" width="159" height="219" viewBox="0 0 159 219">
  <path d="M72.29,205.73v-5.5h-.89v5.5h.89ZM74.17,205.73v-4.1h.08l1.43,4.1h1.26v-5.5h-.86v4.1h-.08l-1.43-4.1h-1.27v5.5h.87ZM77.94,200.23v5.5h1.81c1.1,0,1.87-.67,1.87-2.02v-1.47c0-1.35-.77-2.01-1.87-2.01h-1.81ZM80.73,203.71c0,.91-.31,1.18-.98,1.18h-.91v-3.84h.91c.67,0,.98.27.98,1.18v1.47ZM84.2,205.81c1.1,0,1.81-.65,1.81-1.87v-3.71h-.89v3.71c0,.8-.24,1.06-.91,1.06h-.05c-.67,0-.91-.27-.91-1.06v-3.71h-.89v3.71c0,1.23.71,1.87,1.81,1.87h.05ZM88.52,205.81c1.1,0,1.86-.51,1.86-1.56s-.77-1.41-1.78-1.73c-.55-.17-1.03-.34-1.03-.89,0-.47.27-.68.8-.68h.05c.66,0,.95.21.95.97h.89c0-1.23-.75-1.78-1.84-1.78h-.05c-.95,0-1.68.51-1.7,1.48,0,.88.52,1.31,1.48,1.63.59.2,1.35.35,1.35.99,0,.55-.31.75-.98.75h-.05c-.7,0-1.02-.21-1.02-.97h-.89c0,1.23.77,1.77,1.9,1.77h.05ZM90.41,200.23v.83h1.49v4.67h.89v-4.67h1.49v-.83h-3.87ZM98.43,205.73l-1.22-2v-.07c.79-.18,1.2-.73,1.2-1.67v-.03c0-1.15-.61-1.72-1.8-1.72h-1.85v5.5h.89v-2.02h.57l1.21,2.02h.99ZM97.53,201.99c0,.65-.19.9-.92.9h-.96v-1.83h.96c.73,0,.92.23.92.89v.03ZM99.97,205.73v-5.5h-.89v5.5h.89ZM104.72,205.73l-1.4-5.5h-1.35l-1.44,5.5h.96l.37-1.56h1.56l.37,1.56h.93ZM102.6,201.06h.09l.54,2.28h-1.17l.54-2.28ZM106.16,200.23h-.89v5.5h3.09v-.83h-2.19v-4.67ZM110.52,200.23v5.5h1.81c1.1,0,1.87-.67,1.87-2.02v-1.47c0-1.35-.77-2.01-1.87-2.01h-1.81ZM113.31,203.71c0,.91-.31,1.18-.98,1.18h-.91v-3.84h.91c.67,0,.98.27.98,1.18v1.47ZM118.38,200.23h-3.38v5.5h3.38v-.83h-2.48v-1.52h1.84v-.82h-1.84v-1.49h2.48v-.83ZM120.61,205.81c1.1,0,1.86-.51,1.86-1.56s-.77-1.41-1.78-1.73c-.55-.17-1.03-.34-1.03-.89,0-.47.27-.68.8-.68h.05c.66,0,.95.21.95.97h.89c0-1.23-.75-1.78-1.84-1.78h-.05c-.95,0-1.68.51-1.7,1.48,0,.88.52,1.31,1.48,1.63.59.2,1.35.35,1.35.99,0,.55-.31.75-.98.75h-.05c-.7,0-1.02-.21-1.02-.97h-.89c0,1.23.77,1.77,1.9,1.77h.05ZM124,205.73v-5.5h-.89v5.5h.89ZM127.71,203.77v.02c0,.92-.4,1.21-.99,1.21h-.04c-.66,0-.97-.29-.97-1.21v-1.63c0-.92.31-1.21.98-1.21h.05c.66,0,.97.29.97,1.21h.89c0-1.35-.77-2.01-1.86-2.01h-.05c-1.1,0-1.88.67-1.88,2.01v1.63c0,1.35.65,2.01,1.64,2.01h.05c.62,0,.98-.23,1.17-.72h.1v.64h.83v-2.78h-1.79v.82h.9ZM130.27,205.73v-4.1h.08l1.43,4.1h1.26v-5.5h-.86v4.1h-.08l-1.43-4.1h-1.27v5.5h.87ZM137.25,205.81c1.11,0,1.86-.51,1.86-1.56s-.77-1.41-1.78-1.73c-.55-.17-1.03-.34-1.03-.89,0-.47.27-.68.8-.68h.05c.66,0,.95.21.95.97h.89c0-1.23-.75-1.78-1.84-1.78h-.05c-.95,0-1.68.51-1.7,1.48,0,.88.52,1.31,1.47,1.63.59.2,1.36.35,1.36.99,0,.55-.31.75-.98.75h-.05c-.7,0-1.02-.21-1.02-.97h-.89c0,1.23.77,1.77,1.9,1.77h.05ZM139.14,200.23v.83h1.49v4.67h.89v-4.67h1.49v-.83h-3.87ZM145.25,205.81c1.1,0,1.81-.65,1.81-1.87v-3.71h-.89v3.71c0,.8-.24,1.06-.91,1.06h-.05c-.67,0-.91-.27-.91-1.06v-3.71h-.9v3.71c0,1.23.71,1.87,1.81,1.87h.05ZM147.98,200.23v5.5h1.81c1.1,0,1.87-.67,1.87-2.02v-1.47c0-1.35-.77-2.01-1.87-2.01h-1.81ZM150.77,203.71c0,.91-.32,1.18-.98,1.18h-.91v-3.84h.91c.67,0,.98.27.98,1.18v1.47ZM153.36,205.73v-5.5h-.9v5.5h.9ZM156.09,205.81c1.1,0,1.87-.67,1.87-2.01v-1.63c0-1.35-.77-2.01-1.87-2.01h-.05c-1.1,0-1.87.67-1.87,2.01v1.63c0,1.35.77,2.01,1.87,2.01h.05ZM156.04,205c-.67,0-.98-.3-.98-1.21v-1.63c0-.91.31-1.21.98-1.21h.05c.67,0,.98.3.98,1.21v1.63c0,.91-.31,1.21-.98,1.21h-.05Z" fill="#3a3a39"/>
  <path d="M73.32,214.47c.38-.13.57-.43.57-.87v-.07c0-.64-.39-1.03-1.16-1.03h-1.29v4.12h1.44c.75,0,1.15-.4,1.15-1.11v-.05c0-.53-.24-.83-.72-.94v-.05ZM73.52,213.61c0,.5-.24.74-.79.74h-.92v-1.51h.92c.56,0,.79.24.79.71v.05ZM73.67,215.49c0,.54-.25.79-.79.79h-1.07v-1.58h1.07c.54,0,.79.24.79.75v.04ZM76.03,216.68c.8,0,1.31-.41,1.31-1.4v-2.78h-.37v2.78c0,.77-.31,1.06-.94,1.06h-.03c-.62,0-.93-.28-.93-1.06v-2.78h-.37v2.78c0,1,.51,1.4,1.3,1.4h.03ZM80.64,212.5h-2.41v4.12h2.41v-.35h-2.03v-1.55h1.52v-.35h-1.52v-1.54h2.03v-.35ZM81.62,216.62v-3.63h.05l1.59,3.63h.57v-4.12h-.36v3.62h-.05l-1.59-3.62h-.57v4.12h.37ZM86,216.68c.8,0,1.34-.42,1.34-1.46v-1.32c0-1.04-.54-1.46-1.34-1.46h-.02c-.79,0-1.34.41-1.34,1.46v1.32c0,1.05.55,1.46,1.34,1.46h.02ZM85.97,216.34c-.63,0-.97-.29-.97-1.12v-1.33c0-.82.34-1.11.97-1.11h.02c.62,0,.97.28.97,1.11v1.33c0,.83-.34,1.12-.97,1.12h-.02ZM89.28,216.68c.8,0,1.34-.4,1.34-1.1,0-.89-.81-1.08-1.29-1.24-.45-.16-1.02-.28-1.02-.86,0-.45.27-.71.85-.71h.03c.58,0,.96.24.96.99h.37c0-.96-.57-1.32-1.33-1.32h-.03c-.74,0-1.22.39-1.23,1.05,0,.82.75,1.02,1.22,1.18.5.17,1.09.28,1.09.92,0,.5-.34.76-.97.76h-.04c-.67,0-1.03-.24-1.03-.98h-.37c0,.94.57,1.32,1.41,1.32h.04ZM95.16,216.62l-1.17-4.12h-.57l-1.18,4.12h.41l.37-1.32h1.4l.36,1.32h.4ZM93.68,212.86h.04l.58,2.1h-1.21l.59-2.1ZM96.15,216.62v-4.12h-.37v4.12h.37ZM99.66,213.72c0-.88-.47-1.22-1.2-1.22h-1.37v4.12h.37v-1.67h.68l1.03,1.67h.42l-1.02-1.64v-.04c.65-.04,1.07-.39,1.07-1.21h0ZM99.29,213.74c0,.68-.27.87-.83.87h-.99v-1.76h.99c.56,0,.83.2.83.88h0ZM102.71,212.5h-2.41v4.12h2.41v-.35h-2.03v-1.55h1.52v-.35h-1.52v-1.54h2.03v-.35ZM104.43,216.68c.8,0,1.34-.4,1.34-1.1,0-.89-.81-1.08-1.29-1.24-.45-.16-1.02-.28-1.02-.86,0-.45.27-.71.85-.71h.03c.58,0,.96.24.96.99h.37c0-.96-.57-1.32-1.33-1.32h-.03c-.74,0-1.22.39-1.23,1.05,0,.82.75,1.02,1.22,1.18.5.17,1.09.28,1.09.92,0,.5-.34.76-.97.76h-.04c-.67,0-1.03-.24-1.03-.98h-.38c0,.94.57,1.32,1.41,1.32h.04ZM110.2,215.05v-.35h-1.39v.35h1.39ZM114.83,216.62l-1.17-4.12h-.57l-1.18,4.12h.4l.37-1.32h1.4l.36,1.32h.4ZM113.35,212.86h.04l.58,2.1h-1.21l.59-2.1ZM118.01,213.72c0-.88-.47-1.22-1.2-1.22h-1.37v4.12h.38v-1.67h.68l1.03,1.67h.42l-1.02-1.64v-.04c.65-.04,1.07-.39,1.07-1.21h0ZM117.64,213.74c0,.68-.27.87-.83.87h-.99v-1.76h.99c.56,0,.83.2.83.88h0ZM120.83,215.02v.21c0,.82-.36,1.12-1,1.12h-.03c-.6,0-.94-.3-.94-1.12v-1.32c0-.82.34-1.11.97-1.11h.02c.62,0,.97.29.97,1.11h.37c0-1.04-.54-1.46-1.34-1.46h-.02c-.79,0-1.34.41-1.34,1.46v1.32c0,1.05.53,1.46,1.28,1.46h.02c.51,0,.83-.18.99-.59h.05v.53h.36v-1.95h-1.16v.35h.79ZM124.4,212.5h-2.41v4.12h2.41v-.35h-2.03v-1.55h1.52v-.35h-1.52v-1.54h2.03v-.35ZM125.38,216.62v-3.63h.05l1.59,3.63h.57v-4.12h-.36v3.62h-.05l-1.59-3.62h-.57v4.12h.37ZM128.07,212.5v.35h1.21v3.78h.37v-3.78h1.21v-.35h-2.79ZM131.71,216.62v-4.12h-.38v4.12h.38ZM133.03,216.62v-3.63h.05l1.59,3.63h.57v-4.12h-.36v3.62h-.05l-1.59-3.62h-.57v4.12h.37ZM138.79,216.62l-1.17-4.12h-.57l-1.18,4.12h.4l.37-1.32h1.4l.36,1.32h.4ZM137.31,212.86h.04l.58,2.1h-1.21l.59-2.1Z" fill="#3a3a39"/>
  <path d="M37.6,115.62c10.89,0,19.31,2.63,25,8.06,5.7,5.44,8.53,13.53,8.53,24.15v.59c0,10.62-2.82,18.72-8.53,24.15-5.69,5.43-14.11,8.06-25,8.06h-18.3v36.61H1.29v-101.62h36.31ZM19.3,163.94h18.3c6.54,0,10.39-1.14,12.66-3.48,2.27-2.35,3.16-6.14,3.16-12.04v-.59c0-5.98-.89-9.72-3.15-12.01-2.26-2.29-6.11-3.36-12.66-3.36h-18.3v31.48ZM25.78,1.12l.21.59,25.67,73.67V1.12h20.35l.23.53,18.22,42.37h.45L109.12,1.65l.23-.53h20.35v101.62h-17.72V31.43h-.02l-16.31,36.38-.23.52h-9.63l-.23-.52-16.02-36.37h-.16v71.31h-24.63l-.21-.59L18.86,28.47v74.27H1.29V1.12h24.49Z" fill="#3a3a39"/>
  <path d="M48.14,198.94v18.3h-18.3v-18.3h18.3Z" fill="#3a3a39"/>
</svg>
